assets/images/ico_link.svg

<svg width="13" height="14" viewBox="0 0 13 14" fill="none" xmlns="http://www.w3.org/2000/svg">
<path d="M11.5459 6.72612C11.5459 7.12849 11.5459 7.52941 11.5459 7.93178C11.5459 8.53897 11.5459 9.14615 11.5459 9.75334C11.5459 9.95525 11.5518 10.1572 11.5256 10.3576C11.5343 10.2937 11.543 10.2283 11.5518 10.1644C11.5242 10.3591 11.4733 10.5465 11.3978 10.728C11.4225 10.6699 11.4472 10.6118 11.4704 10.5552C11.3949 10.7309 11.299 10.8965 11.1828 11.0476C11.2206 10.9982 11.2583 10.9503 11.2961 10.9009C11.1799 11.0505 11.0448 11.1856 10.8952 11.3018C10.9446 11.2641 10.9925 11.2263 11.0419 11.1885C10.8894 11.3047 10.7252 11.402 10.5495 11.4761C10.6076 11.4514 10.6657 11.4267 10.7223 11.4035C10.5422 11.479 10.3534 11.5299 10.1587 11.5575C10.2226 11.5488 10.288 11.54 10.3519 11.5313C10.0483 11.5705 9.73164 11.5517 9.42659 11.5517C8.847 11.5517 8.26887 11.5517 7.68928 11.5517C6.97896 11.5517 6.26718 11.5517 5.55686 11.5517C4.95112 11.5517 4.34393 11.5517 3.7382 11.5517C3.47382 11.5517 3.20945 11.5531 2.94653 11.5517C2.84484 11.5517 2.74462 11.5444 2.64439 11.5313C2.7083 11.54 2.77367 11.5488 2.83758 11.5575C2.64293 11.5299 2.45555 11.479 2.27397 11.4035C2.33208 11.4282 2.39018 11.4529 2.44683 11.4761C2.27107 11.4006 2.10547 11.3047 1.9544 11.1885C2.00379 11.2263 2.05172 11.2641 2.10111 11.3018C1.95149 11.1856 1.8164 11.0505 1.70019 10.9009C1.73796 10.9503 1.77573 10.9982 1.8135 11.0476C1.69729 10.8951 1.59996 10.7309 1.52588 10.5552C1.55057 10.6133 1.57527 10.6714 1.59851 10.728C1.52297 10.5479 1.47213 10.3591 1.44453 10.1644C1.45325 10.2283 1.46197 10.2937 1.47068 10.3576C1.43146 10.054 1.45034 9.73736 1.45034 9.43232C1.45034 8.85273 1.45034 8.27459 1.45034 7.695C1.45034 6.98468 1.45034 6.2729 1.45034 5.56258C1.45034 4.95684 1.45034 4.34965 1.45034 3.74392C1.45034 3.47954 1.44889 3.21517 1.45034 2.95225C1.45034 2.85057 1.45761 2.75034 1.47068 2.65011C1.46197 2.71402 1.45325 2.77939 1.44453 2.8433C1.47213 2.64866 1.52297 2.46127 1.59851 2.27969C1.57382 2.3378 1.54912 2.3959 1.52588 2.45255C1.60142 2.27679 1.69729 2.11119 1.8135 1.96012C1.77573 2.00951 1.73796 2.05745 1.70019 2.10683C1.8164 1.95722 1.95149 1.82212 2.10111 1.70592C2.05172 1.74368 2.00379 1.78145 1.9544 1.81922C2.10692 1.70301 2.27107 1.60569 2.44683 1.5316C2.38873 1.5563 2.33062 1.58099 2.27397 1.60423C2.45409 1.5287 2.64293 1.47786 2.83758 1.45026C2.77367 1.45897 2.7083 1.46769 2.64439 1.4764C2.82015 1.45316 2.99737 1.45607 3.17459 1.45607C3.4317 1.45607 3.68881 1.45607 3.94592 1.45607C4.57344 1.45607 5.20242 1.45607 5.82995 1.45607C5.97811 1.45607 6.12773 1.45607 6.2759 1.45607C6.46183 1.45607 6.65793 1.37472 6.79012 1.24399C6.91649 1.11761 7.01091 0.911341 7.0022 0.729766C6.99348 0.54238 6.93247 0.347731 6.79012 0.215544C6.64776 0.0848095 6.47345 0.00346375 6.2759 0.00346375C5.90839 0.00346375 5.54088 0.00346375 5.17482 0.00346375C4.58071 0.00346375 3.98659 0.00346375 3.39248 0.00346375C3.24867 0.00346375 3.10341 0.00346375 2.9596 0.00346375C2.48315 0.00346375 2.02848 0.119672 1.60287 0.328847C1.12641 0.562716 0.724043 0.952014 0.442237 1.39796C0.151716 1.85699 0.00209821 2.40898 0.000645602 2.9508C-0.000807002 3.15416 0.000645602 3.35753 0.000645602 3.56234C0.000645602 4.06204 0.000645602 4.56173 0.000645602 5.06143C0.000645602 5.69041 0.000645602 6.31793 0.000645602 6.94691C0.000645602 7.53667 0.000645602 8.12643 0.000645602 8.71618C0.000645602 9.09967 0.000645602 9.48461 0.000645602 9.8681C0.000645602 9.93056 0.000645602 9.99302 0.000645602 10.0569C0.00209821 10.5697 0.13719 11.0839 0.392849 11.5284C0.912881 12.4348 1.90646 13.0014 2.94943 13.0043C3.17459 13.0057 3.39974 13.0043 3.62489 13.0043C4.13621 13.0043 4.64753 13.0043 5.15884 13.0043C5.78927 13.0043 6.4197 13.0043 7.05013 13.0043C7.63263 13.0043 8.21512 13.0043 8.79762 13.0043C9.16512 13.0043 9.53263 13.0043 9.90014 13.0043C9.96406 13.0043 10.0294 13.0057 10.0933 13.0043C10.6352 12.9941 11.1915 12.8372 11.6447 12.5365C12.0849 12.2446 12.4698 11.8407 12.695 11.3585C12.8896 10.9387 13 10.5043 13 10.0395C13 9.60808 13 9.17811 13 8.74669C13 8.17436 13 7.60349 13 7.03116C13 6.92948 13 6.82925 13 6.72757C13 6.54163 12.9187 6.34553 12.7879 6.21335C12.6615 6.08697 12.4553 5.99255 12.2737 6.00127C12.0863 6.00998 11.8917 6.07099 11.7595 6.21335C11.6287 6.35425 11.5459 6.52856 11.5459 6.72612Z" fill="#DB4028"/>
<path d="M9.04717 1.45461C9.41032 1.45461 9.77493 1.45461 10.1381 1.45461C10.7177 1.45461 11.2958 1.45461 11.8754 1.45461C12.0076 1.45461 12.1398 1.45461 12.272 1.45461C12.4579 1.45461 12.654 1.37327 12.7862 1.24253C12.9126 1.11615 13.007 0.909884 12.9983 0.728309C12.9895 0.540923 12.9285 0.346274 12.7862 0.214087C12.6438 0.0833524 12.4695 0.00200653 12.272 0.00200653C11.9088 0.00200653 11.5442 0.00200653 11.181 0.00200653C10.6015 0.00200653 10.0233 0.00200653 9.44373 0.00200653C9.31155 0.00200653 9.17936 0.00200653 9.04717 0.00200653C8.86124 0.00200653 8.66514 0.0833524 8.53295 0.214087C8.40657 0.340463 8.31215 0.546733 8.32087 0.728309C8.32959 0.915695 8.3906 1.11034 8.53295 1.24253C8.67531 1.37181 8.85107 1.45461 9.04717 1.45461Z" fill="#DB4028"/>
<path d="M12.9975 3.9531C12.9975 3.58995 12.9975 3.22534 12.9975 2.86219C12.9975 2.2826 12.9975 1.70447 12.9975 1.12488C12.9975 0.992689 12.9975 0.860502 12.9975 0.728315C12.9975 0.542382 12.9162 0.34628 12.7854 0.214093C12.6591 0.0877168 12.4528 -0.00670243 12.2712 0.0020132C12.0838 0.0107288 11.8892 0.0717382 11.757 0.214093C11.6263 0.356449 11.5449 0.530761 11.5449 0.728315C11.5449 1.09147 11.5449 1.45607 11.5449 1.81922C11.5449 2.39881 11.5449 2.97695 11.5449 3.55654C11.5449 3.68872 11.5449 3.82091 11.5449 3.9531C11.5449 4.13903 11.6263 4.33513 11.757 4.46732C11.8834 4.59369 12.0896 4.68811 12.2712 4.6794C12.4586 4.67068 12.6533 4.60967 12.7854 4.46732C12.9147 4.32496 12.9975 4.1492 12.9975 3.9531Z" fill="#DB4028"/>
<path d="M7.02373 7.00356C7.21547 6.81182 7.40867 6.61862 7.60041 6.42688C8.05798 5.96931 8.517 5.51029 8.97457 5.05272C9.52802 4.49927 10.0815 3.94583 10.6364 3.39094C11.1172 2.91012 11.5965 2.43076 12.0773 1.94995C12.3098 1.71754 12.5465 1.48657 12.776 1.25125C12.7789 1.24834 12.7818 1.24544 12.7862 1.24108C12.9184 1.10889 12.9983 0.914246 12.9983 0.72686C12.9983 0.54819 12.9198 0.336109 12.7862 0.212638C12.6482 0.0862615 12.4666 -0.00815774 12.272 0.000557889C12.0788 0.00927352 11.8972 0.0746407 11.7578 0.212638C11.566 0.404382 11.3728 0.597578 11.1811 0.789322C10.7235 1.24689 10.2645 1.70592 9.80692 2.16349C9.25347 2.71693 8.70003 3.27037 8.14514 3.82526C7.66433 4.30608 7.18497 4.78544 6.70415 5.26625C6.47174 5.49866 6.23496 5.72963 6.00545 5.96495C6.00255 5.96786 5.99964 5.97076 5.99528 5.97512C5.8631 6.10731 5.7832 6.30195 5.7832 6.48934C5.7832 6.66801 5.86164 6.88009 5.99528 7.00356C6.13328 7.12994 6.31486 7.22436 6.5095 7.21564C6.7027 7.20838 6.88428 7.14301 7.02373 7.00356Z" fill="#DB4028"/>
</svg>

<svg width="13" height="14" fill="none" xmlns="http://www.w3.org/2000/svg"><path d="M11.546 6.726v3.027c0 .202.006.404-.02.605l.026-.194a2.3 2.3 0 01-.154.564c.024-.058.05-.116.072-.173a2.288 2.288 0 01-.287.493l.113-.147c-.116.15-.251.285-.4.4l.146-.113a2.265 2.265 0 01-.492.288l.172-.073c-.18.076-.369.127-.563.154l.193-.026c-.304.04-.62.02-.925.02H3.738c-.264 0-.529.002-.791 0a2.36 2.36 0 01-.303-.02l.194.026a2.301 2.301 0 01-.564-.154l.173.073a2.286 2.286 0 01-.493-.288l.147.114a2.277 2.277 0 01-.4-.401l.112.147a2.263 2.263 0 01-.287-.493l.073.173a2.28 2.28 0 01-.154-.564l.026.194c-.04-.304-.02-.62-.02-.926V3.743c0-.263-.002-.528 0-.79 0-.102.007-.203.02-.303l-.026.193a2.3 2.3 0 01.154-.563l-.073.173c.075-.176.171-.342.287-.493-.037.05-.075.097-.113.147.116-.15.251-.285.401-.401l-.147.113c.153-.116.317-.213.493-.287l-.173.072a2.32 2.32 0 01.564-.154l-.194.026c.176-.023.353-.02.53-.02h3.102a.756.756 0 00.514-.212.734.734 0 00.212-.514C6.993.542 6.932.348 6.79.216a.753.753 0 00-.514-.213H2.96c-.477 0-.932.117-1.357.326A2.937 2.937 0 000 2.95c-.002.203 0 .407 0 .611v6.496c.001.513.136 1.027.392 1.471a2.978 2.978 0 002.556 1.476c.226.002.45 0 .676 0H9.9c.064 0 .13.002.193 0a2.938 2.938 0 001.552-.467c.44-.292.825-.696 1.05-1.179A3.09 3.09 0 0013 10.039V6.727a.756.756 0 00-.212-.515.734.734 0 00-.514-.212c-.188.009-.382.07-.514.212a.748.748 0 00-.214.513zM9.047 1.455h3.225a.756.756 0 00.514-.212.734.734 0 00.212-.515.739.739 0 00-.212-.514.754.754 0 00-.514-.212H9.047a.756.756 0 00-.514.212.734.734 0 00-.212.514c.009.188.07.382.212.515a.763.763 0 00.514.212z" fill="#DB4028"/><path d="M12.998 3.953V.728a.756.756 0 00-.213-.514.734.734 0 00-.514-.212c-.187.009-.382.07-.514.212a.754.754 0 00-.212.514v3.225c0 .186.081.382.212.514a.73.73 0 00.514.212.737.737 0 00.514-.212.763.763 0 00.213-.514z" fill="#DB4028"/><path d="M7.024 7.004l.576-.577 1.375-1.374 1.661-1.662 1.441-1.441c.233-.232.47-.463.699-.699l.01-.01a.747.747 0 00.212-.514.74.74 0 00-.212-.514c-.138-.127-.32-.221-.514-.212a.763.763 0 00-.514.212l-.577.576-1.374 1.374-1.662 1.662-1.44 1.441c-.233.233-.47.464-.7.699l-.01.01a.747.747 0 00-.212.514c0 .179.079.391.212.515.138.126.32.22.514.212a.75.75 0 00.515-.212z" fill="#DB4028"/></svg>
